X: 20341
Q: "Andantino"
M: 3/4
L: 1/8
K: D
d>e |\
f2 a2 a>b | b2 a2 bc'/d'/ | (ba)(gf)(ed) | (f2 e2) (d>e) |\
f2 a2 (ab/c'/) | {c'}d'3 c' b2 | a>b (b/a/g/f/) Te>d | d4 :|
d'2 d2 (de/f/) | e2 f2 a>d' | (c'b)(ag)(fg) | (f2 e2) d>e |
f2 a2 (ab/c'/) | {c'}d'3 c' b2 | (a>b)af ed | {c}B4 (d>e) |\
(f3/b//a//) a2 A2 | B>d d2 (bc'/d'/) | a>baf Te>d | d4 |]


